dist/icons/svgs/unlock-outline.svg

<svg xmlns="http://www.w3.org/2000/svg" width="24" height="24" fill="currentcolor" class="icon-unlock-outline" viewBox="0 0 24 24">
  <path d="M8.875 7V9.5H18.25C19.6172 9.5 20.75 10.6328 20.75 12V19.5C20.75 20.9062 19.6172 22 18.25 22H5.75C4.34375 22 3.25 20.9062 3.25 19.5V12C3.25 10.6328 4.34375 9.5 5.75 9.5H7V7C7 4.26562 9.22656 2 12 2C14.2266 2 16.1016 3.48438 16.7266 5.47656C16.8828 5.98438 16.6094 6.49219 16.1406 6.64844C15.6328 6.80469 15.125 6.53125 14.9688 6.0625C14.5391 4.8125 13.3672 3.875 12 3.875C10.2422 3.875 8.875 5.28125 8.875 7ZM5.125 12V19.5C5.125 19.8516 5.39844 20.125 5.75 20.125H18.25C18.5625 20.125 18.875 19.8516 18.875 19.5V12C18.875 11.6875 18.5625 11.375 18.25 11.375H5.75C5.39844 11.375 5.125 11.6875 5.125 12Z"/>
</svg>

<svg xmlns="http://www.w3.org/2000/svg" width="24" height="24" fill="currentColor" class="icon-unlock-outline" viewBox="0 0 24 24">
  <path d="M8.875 7v2.5h9.375c1.367 0 2.5 1.133 2.5 2.5v7.5c0 1.406-1.133 2.5-2.5 2.5H5.75a2.47 2.47 0 0 1-2.5-2.5V12c0-1.367 1.094-2.5 2.5-2.5H7V7c0-2.734 2.227-5 5-5 2.227 0 4.102 1.484 4.727 3.477a.933.933 0 0 1-.586 1.171.933.933 0 0 1-1.172-.585c-.43-1.25-1.602-2.188-2.969-2.188A3.11 3.11 0 0 0 8.875 7m-3.75 5v7.5c0 .352.273.625.625.625h12.5a.64.64 0 0 0 .625-.625V12c0-.312-.312-.625-.625-.625H5.75a.64.64 0 0 0-.625.625"/>
</svg>
